tn/message-plus.svg

<svg viewBox="0 0 15 15" fill="none" xmlns="http://www.w3.org/2000/svg" height="1em" width="1em">
  <path fill-rule="evenodd" clip-rule="evenodd" d="M0 1.49935C0 0.670259 0.671165 0 1.5 0H13.5C14.3288 0 15 0.670259 15 1.49935V10.4935C15 11.3226 14.3288 11.9928 13.5 11.9928H9.7675L7.91594 14.7683C7.8232 14.9074 7.66712 14.9909 7.5 14.9909C7.33288 14.9909 7.1768 14.9074 7.08406 14.7683L5.2325 11.9928H1.5C0.671165 11.9928 0 11.3226 0 10.4935V1.49935ZM7 9V7H5V6H7V4H8V6H10V7H8V9H7Z" fill="black"/>
</svg>

<svg viewBox="0 0 15 15" fill="none" xmlns="http://www.w3.org/2000/svg" height="1em" width="1em">
  <path fill-rule="evenodd" clip-rule="evenodd" d="M0 1.5C0 .67.671 0 1.5 0h12c.829 0 1.5.67 1.5 1.5v8.993c0 .83-.671 1.5-1.5 1.5H9.768l-1.852 2.775a.5.5 0 0 1-.832 0l-1.851-2.775H1.5c-.829 0-1.5-.67-1.5-1.5V1.5ZM7 9V7H5V6h2V4h1v2h2v1H8v2H7Z" fill="#000"/>
</svg>
